X:1
T:Bouree II
T:Bach Cello Suite 3(BWV 1009), Bouree II
T:J. S. Bach
T:J. S. Bach
Z:J. S. Bach
L:1/8
M:4/4
K:Bb
V:1 bass 
V:1
 CD | E2 DC =B,2 C2 | D(C=B,A,) G,F,E,D, | E,(G,F,E,) D,(F,E,D,) | C,=B,,C,D, E,F,G,A, | %5
 B,2 _A,G, F,2 E,2 | D,E,F,G, _A,B,CD | E2 DC B,_A,G,F, | E,6 :: E,F, | G,2 G,F, G,2 =A,2 | %11
 (B,A,)(B,C) (B,C)(DB,) | (G,B,)(A,B,) CB,A,G, | ^F,2 =E,^F, D,2 (DC) | D2 (E,D,) E,2 G,2 | %15
 (C=B,CD) E2 D2 | (CB,)(A,G,) B,A,G,^F, | G,2 D,2 G,,2 G,_A, | B,2 _A,G, F,=E,F,G, | %19
 B,(_A,G,F,) (D4 | D)=B,CD EDCE | D(C=B,A,) G,(F,E,D,) | (E,D,)(E,D,) (G,F,)(_A,F,) | %23
 G,,(A,,=B,,)C, (D,E,F,D,) | F,(E,D,C,) E,(D,C,=B,,) | !fermata![C,,C,]6 :| %26

